X:400
T:Lady Burnside's Birth-Day
R:Strathspey
B:The Athole Collection
M:C
L:1/8
K:C Minor
G|c<c c>G E3G|BF D<F F>G|c<c c>G E<G G>g|e>c e/d/c/=B/ c2c:|
G|c<ce<c g<ce<c|Be fe/d/ c2 c>G|
c<ce<c g<c e/f/g/e/|Bef>d e>cd>B|G>c e/d/c/=B/ c2c||
